assets/img/waku.svg

<svg width="65" height="64" viewBox="0 0 65 64" fill="none" xmlns="http://www.w3.org/2000/svg">
<g clip-path="url(#clip0)">
<path d="M4.40096 46.0099C3.92982 46.0099 3.45868 45.7658 3.19484 45.3338C2.79908 44.6578 3.00638 43.7939 3.68482 43.3996C3.77905 43.3432 11.9769 38.4043 18.4975 32.0569C11.7131 25.4465 3.81674 20.6953 3.72252 20.639C3.04407 20.2446 2.83677 19.3808 3.23253 18.7047C3.62829 18.0287 4.49519 17.8221 5.17364 18.2165C5.5317 18.4418 14.2573 23.6625 21.5129 31.0615C22.0405 31.6061 22.0405 32.4888 21.5129 33.0334C14.5965 40.1132 5.5317 45.578 5.13594 45.8221C4.9098 45.9348 4.6648 46.0099 4.40096 46.0099Z" fill="#151512"/>
<path d="M60.6366 46.0096C60.3916 46.0096 60.1466 45.9533 59.9016 45.803C59.5247 45.5777 50.441 40.1129 43.5247 33.0143C42.997 32.4697 42.997 31.5871 43.5247 31.0425C50.7614 23.6434 59.487 18.4227 59.8639 18.1974C60.5423 17.803 61.4092 18.0096 61.805 18.6856C62.2008 19.3617 61.9935 20.2256 61.315 20.6199C61.2396 20.6763 53.3244 25.4086 46.54 32.0378C53.0606 38.3852 61.2773 43.3429 61.3527 43.3805C62.0123 43.7748 62.2385 44.6387 61.8427 45.3148C61.5789 45.7655 61.1077 46.0096 60.6366 46.0096Z" fill="#151512"/>
<path d="M32.481 21.4464C32.123 21.4464 31.7649 21.3149 31.501 21.052C24.3962 14.16 18.9121 5.12714 18.6671 4.73278C18.2714 4.05672 18.4975 3.19287 19.1571 2.79851C19.8167 2.40414 20.6836 2.61071 21.0982 3.28677C21.1548 3.38067 26.1112 11.5497 32.481 18.0473C39.1147 11.2868 43.8827 3.41822 43.9392 3.32433C44.335 2.64827 45.2019 2.4417 45.8803 2.83607C46.5399 3.23043 46.7661 4.09428 46.3703 4.77034C46.1442 5.14592 40.9051 13.822 33.4798 21.052C33.1972 21.2962 32.8391 21.4464 32.481 21.4464Z" fill="#151512"/>
<path d="M19.8921 61.4275C19.6471 61.4275 19.4021 61.3711 19.1571 61.2209C18.4975 60.8265 18.2714 59.9627 18.6671 59.2866C18.8933 58.911 24.3962 49.8594 31.501 42.9674C32.0476 42.4416 32.9333 42.4416 33.4798 42.9674C40.9051 50.1787 46.1442 58.8735 46.3703 59.2491C46.7661 59.9251 46.5588 60.789 45.8803 61.1833C45.2207 61.5777 44.335 61.3711 43.9392 60.6951C43.8827 60.62 39.1336 52.7326 32.481 45.9721C26.1112 52.4697 21.1359 60.6575 21.0982 60.7326C20.8344 61.1833 20.3632 61.4275 19.8921 61.4275Z" fill="#151512"/>
<path d="M63.0302 29.765C62.1256 29.765 52.2128 29.7087 42.4507 27.1735C41.7158 26.9857 41.2635 26.2345 41.4331 25.4834C43.6757 15.8683 48.6133 6.49744 48.8394 6.12186C49.1975 5.42702 50.0644 5.18289 50.7428 5.5397C51.4401 5.89651 51.704 6.76035 51.3271 7.43641C51.2894 7.53031 46.8229 15.981 44.5238 24.7885C53.7393 26.9669 62.8983 26.9481 63.0868 26.9669C63.8594 26.9669 64.5002 27.5866 64.5002 28.3754C64.5002 29.1641 63.8783 29.7838 63.0868 29.7838C63.0679 29.765 63.0491 29.765 63.0302 29.765Z" fill="#151512"/>
<path d="M14.9923 58.648C14.7662 58.648 14.54 58.5917 14.3327 58.479C13.6355 58.1222 13.3905 57.2584 13.7485 56.5823C13.7862 56.5072 18.1019 48.357 20.4953 39.2114C11.6567 37.1457 2.10188 37.1081 1.93227 37.1081C1.14075 37.1081 0.5 36.4696 0.5 35.6997C0.5 34.9297 1.12191 34.2912 1.91343 34.2912C2.38457 34.2349 12.9759 34.2912 22.5683 36.8077C23.3033 36.9955 23.7556 37.7466 23.586 38.4978C21.2114 48.5635 16.4623 57.5213 16.255 57.8969C15.9912 58.3663 15.5012 58.648 14.9923 58.648Z" fill="#151512"/>
<path d="M38.5309 23.0422C37.909 23.0422 37.3437 22.6291 37.174 22.0093C34.498 12.507 34.3095 1.93422 34.3095 1.48352C34.2907 0.713564 34.9126 0.0750666 35.7041 0.0562873H35.7229C36.4956 0.0562873 37.1175 0.676006 37.1364 1.44596C37.1364 1.53986 37.306 11.0985 39.5486 19.9061C48.6888 17.3896 56.7924 12.9577 56.8678 12.9014C57.5462 12.5258 58.4131 12.7699 58.7901 13.446C59.167 14.122 58.922 14.9859 58.2435 15.3615C57.8666 15.568 48.9526 20.4507 38.889 22.9859C38.7571 23.0234 38.644 23.0422 38.5309 23.0422Z" fill="#151512"/>
<path d="M29.3526 63.9246C28.5799 63.9246 27.958 63.3049 27.9392 62.5349C27.9392 62.441 27.7884 53.2392 25.4515 44.0748C16.6506 46.5162 8.24541 51.0983 8.17003 51.1359C7.49158 51.5115 6.62468 51.2673 6.24777 50.5913C5.87085 49.9152 6.11585 49.0514 6.79429 48.6758C7.19005 48.4692 16.4998 43.38 26.1111 40.995C26.865 40.8072 27.6188 41.2579 27.8072 41.9903C30.5776 51.9434 30.7472 62.0842 30.7472 62.5162C30.766 63.2673 30.1441 63.9058 29.3526 63.9246Z" fill="#151512"/>
<path d="M26.6957 22.9112C26.5638 22.9112 26.4507 22.8924 26.3188 22.8548C16.764 20.2257 7.5673 14.9487 7.19039 14.7234C6.51194 14.329 6.2858 13.4652 6.68156 12.7891C7.05847 12.1318 7.92537 11.8877 8.60382 12.2821C8.69805 12.3384 16.9902 17.1084 25.7157 19.7562C28.2599 10.6483 28.618 1.46517 28.6368 1.35249C28.6745 0.582537 29.3529 -0.0559611 30.1068 0.000376935C30.8794 0.0191563 31.5013 0.676433 31.4637 1.46517C31.4448 1.87831 31.049 12.0192 28.0337 21.9159C27.8641 22.5168 27.2988 22.9112 26.6957 22.9112Z" fill="#151512"/>
<path d="M34.9878 63.9998C34.969 63.9998 34.9501 63.9998 34.9313 63.9998C34.1586 63.9623 33.5367 63.3238 33.5744 62.5351C33.5932 62.0843 34.0267 51.5304 36.9289 42.0843C37.1551 41.3519 37.9277 40.9388 38.6627 41.1454C48.6509 43.9059 57.4519 48.9951 57.8288 49.2205C58.5072 49.6149 58.7334 50.4787 58.3376 51.1548C57.9419 51.8308 57.075 52.0562 56.3965 51.6618C56.3211 51.6055 48.3306 47.0045 39.2469 44.2627C36.8158 53.0139 36.4201 62.5726 36.4012 62.6665C36.3824 63.3989 35.7416 63.9998 34.9878 63.9998Z" fill="#151512"/>
<path d="M1.96996 29.6335C1.93227 29.6335 1.91343 29.6335 1.89458 29.6335C1.12191 29.6335 0.5 28.995 0.5 28.2251C0.5 27.4551 1.12191 26.8542 1.91343 26.8166C1.93227 26.8166 11.6001 26.8166 20.4953 24.7697C18.1396 15.6053 13.8428 7.45512 13.8051 7.38C13.4281 6.68516 13.692 5.84009 14.3893 5.46451C15.0866 5.1077 15.9346 5.37061 16.2927 6.04667C16.5 6.42225 21.2303 15.3988 23.5671 25.4645C23.7367 26.2157 23.2844 26.9481 22.5495 27.1546C13.2585 29.5772 2.98763 29.6335 1.96996 29.6335Z" fill="#151512"/>
<path d="M49.9891 58.6857C49.4803 58.6857 48.9903 58.404 48.7453 57.9345C48.538 57.5402 43.6193 48.1693 41.3955 38.5542C41.2259 37.8031 41.6782 37.0707 42.4131 36.8829C52.4579 34.3101 62.6534 34.3477 63.0492 34.3289C63.8218 34.3289 64.4626 34.9674 64.4626 35.7373C64.4626 36.5073 63.8218 37.1458 63.0492 37.1458C63.0492 37.1458 63.0492 37.1458 63.0115 37.1458C62.4084 37.1458 53.4379 37.1834 44.4673 39.2679C46.7476 48.0566 51.1952 56.5449 51.2329 56.62C51.591 57.3148 51.3272 58.1599 50.6487 58.5167C50.4414 58.6294 50.2153 58.6857 49.9891 58.6857Z" fill="#151512"/>
</g>
<defs>
<clipPath id="clip0">
<rect width="64" height="64" fill="white" transform="translate(0.5)"/>
</clipPath>
</defs>
</svg>

<svg width="65" height="64" fill="none" xmlns="http://www.w3.org/2000/svg"><g clip-path="url(#clip0)" fill="#151512"><path d="M4.401 46.01c-.471 0-.942-.244-1.206-.676-.396-.676-.189-1.54.49-1.934.094-.057 8.292-4.996 14.812-11.343-6.784-6.61-14.68-11.362-14.774-11.418-.679-.394-.886-1.258-.49-1.934.395-.676 1.262-.883 1.94-.488.359.225 9.084 5.446 16.34 12.845a1.426 1.426 0 010 1.971c-6.917 7.08-15.981 12.545-16.377 12.79a1.64 1.64 0 01-.735.187zm56.236 0c-.245 0-.49-.057-.735-.207-.377-.225-9.461-5.69-16.377-12.789a1.426 1.426 0 010-1.972c7.236-7.399 15.962-12.62 16.339-12.845.678-.394 1.545-.187 1.941.489.396.676.188 1.54-.49 1.934-.075.056-7.99 4.789-14.775 11.418 6.52 6.347 14.737 11.305 14.813 11.343a1.42 1.42 0 01.49 1.934 1.4 1.4 0 01-1.206.695zM32.481 21.446c-.358 0-.716-.131-.98-.394-7.105-6.892-12.589-15.925-12.834-16.32a1.42 1.42 0 01.49-1.933 1.422 1.422 0 011.941.488c.057.094 5.013 8.263 11.383 14.76 6.634-6.76 11.402-14.629 11.458-14.723.396-.676 1.263-.882 1.941-.488a1.42 1.42 0 01.49 1.934c-.226.376-5.465 9.052-12.89 16.282-.283.244-.64.394-.999.394zM19.892 61.428c-.245 0-.49-.057-.735-.207a1.42 1.42 0 01-.49-1.934c.226-.376 5.73-9.428 12.834-16.32a1.438 1.438 0 011.979 0c7.425 7.212 12.664 15.907 12.89 16.282.396.676.189 1.54-.49 1.934-.66.395-1.545.188-1.94-.488-.057-.075-4.806-7.962-11.459-14.723-6.37 6.498-11.345 14.685-11.383 14.76a1.4 1.4 0 01-1.206.696z"/><path d="M63.03 29.765c-.904 0-10.817-.056-20.58-2.591a1.417 1.417 0 01-1.017-1.69c2.243-9.616 7.18-18.987 7.406-19.362.358-.695 1.225-.94 1.904-.582.697.357.961 1.22.584 1.896-.038.094-4.504 8.545-6.803 17.352 9.215 2.179 18.374 2.16 18.563 2.179.772 0 1.413.62 1.413 1.408 0 .79-.622 1.409-1.413 1.409-.02-.019-.038-.019-.057-.019zM14.992 58.648a1.38 1.38 0 01-.66-.169c-.697-.357-.942-1.22-.584-1.897.038-.075 4.354-8.225 6.747-17.37-8.838-2.066-18.393-2.104-18.563-2.104C1.141 37.108.5 36.47.5 35.7c0-.77.622-1.409 1.413-1.409.472-.056 11.063 0 20.655 2.517a1.417 1.417 0 011.018 1.69c-2.375 10.066-7.124 19.023-7.331 19.399a1.46 1.46 0 01-1.263.751z"/><path d="M38.53 23.042a1.407 1.407 0 01-1.356-1.033C34.498 12.507 34.31 1.934 34.31 1.484c-.02-.77.603-1.409 1.394-1.428h.019c.773 0 1.395.62 1.413 1.39 0 .094.17 9.652 2.413 18.46 9.14-2.516 17.243-6.948 17.319-7.005a1.421 1.421 0 011.922.545 1.41 1.41 0 01-.547 1.915c-.376.207-9.29 5.09-19.354 7.625a1.287 1.287 0 01-.358.056zm-9.177 40.883c-.773 0-1.395-.62-1.414-1.39 0-.094-.15-9.296-2.488-18.46-8.8 2.441-17.206 7.023-17.281 7.06a1.421 1.421 0 01-1.922-.544 1.411 1.411 0 01.546-1.915c.396-.207 9.706-5.296 19.317-7.681a1.396 1.396 0 011.696.995c2.77 9.953 2.94 20.094 2.94 20.526.019.751-.603 1.39-1.394 1.409zm-2.657-41.014a1.33 1.33 0 01-.377-.056c-9.555-2.63-18.752-7.906-19.129-8.132a1.41 1.41 0 111.413-2.441c.095.056 8.387 4.826 17.113 7.474 2.544-9.108 2.902-18.29 2.92-18.404.038-.77.717-1.408 1.47-1.352a1.399 1.399 0 011.358 1.465c-.02.413-.415 10.554-3.43 20.45a1.39 1.39 0 01-1.338.996zM34.988 64h-.057c-.772-.038-1.394-.676-1.357-1.465.02-.45.453-11.005 3.355-20.45a1.414 1.414 0 011.734-.94c9.988 2.76 18.789 7.85 19.166 8.075.678.395.904 1.259.509 1.935a1.42 1.42 0 01-1.941.507c-.076-.056-8.066-4.657-17.15-7.4-2.431 8.752-2.827 18.31-2.846 18.404-.019.733-.66 1.334-1.413 1.334z"/><path d="M1.97 29.634h-.075A1.405 1.405 0 01.5 28.225c0-.77.622-1.37 1.413-1.408.02 0 9.687 0 18.582-2.047-2.355-9.165-6.652-17.315-6.69-17.39a1.403 1.403 0 01.584-1.915 1.419 1.419 0 011.904.582c.207.375 4.937 9.352 7.274 19.418a1.427 1.427 0 01-1.018 1.69c-9.29 2.422-19.561 2.479-20.579 2.479zm48.02 29.052c-.51 0-1-.282-1.245-.752-.207-.394-5.126-9.765-7.35-19.38a1.398 1.398 0 011.018-1.671c10.045-2.573 20.24-2.535 20.636-2.554.773 0 1.414.638 1.414 1.408 0 .77-.641 1.409-1.414 1.409h-.038c-.603 0-9.573.037-18.544 2.122 2.28 8.789 6.728 17.277 6.766 17.352a1.41 1.41 0 01-.584 1.897 1.378 1.378 0 01-.66.169z"/></g><defs><clipPath id="clip0"><path fill="#fff" transform="translate(.5)" d="M0 0h64v64H0z"/></clipPath></defs></svg>
